icons/svg/basket.svg

﻿<?xml version="1.0" encoding="utf-8"?>
<!DOCTYPE svg PUBLIC "-//W3C//DTD SVG 1.1//EN" "http://www.w3.org/Graphics/SVG/1.1/DTD/svg11.dtd">
<svg xmlns="http://www.w3.org/2000/svg" xmlns:xlink="http://www.w3.org/1999/xlink" version="1.1" baseProfile="full" width="24" height="24" viewBox="0 0 24.00 24.00" enable-background="new 0 0 24.00 24.00" xml:space="preserve">
	<path fill="#000000" fill-opacity="1" stroke-width="0.2" stroke-linejoin="round" d="M 5.5,21C 4.71931,21 4.04309,20.5527 3.71366,19.9004L 3.70777,19.902L 1.10118,10.4388L 1,10C 1,9.44772 1.44771,9.00001 2,9.00001L 6.57797,9.00001L 11.1808,2.42643C 11.3617,2.16859 11.6611,2.00001 12,2.00001C 12.344,2.00001 12.6475,2.17375 12.8274,2.43829L 17.422,9.00001L 22,9.00001C 22.5523,9.00001 23,9.44772 23,10L 22.9581,10.2874L 20.2863,19.9004C 19.9569,20.5527 19.2807,21 18.5,21L 5.5,21 Z M 12,4.74346L 9.01952,9.00002L 14.9805,9.00002L 12,4.74346 Z M 12,13C 10.8954,13 10,13.8954 10,15C 10,16.1046 10.8954,17 12,17C 13.1046,17 14,16.1046 14,15C 14,13.8954 13.1046,13 12,13 Z "/>
</svg>

<svg xmlns="http://www.w3.org/2000/svg" version="1.1" baseProfile="full" width="24" height="24" viewBox="0 0 24.00 24.00" xml:space="preserve"><path fill="#000" fill-opacity="1" stroke-width=".2" stroke-linejoin="round" d="M5.5 21c-.78 0-1.457-.447-1.786-1.1l-.006.002L1.1 10.44 1 10c0-.552.448-1 1-1h4.578l4.603-6.574C11.363 2.17 11.66 2 12 2c.344 0 .648.174.827.438L17.422 9H22c.552 0 1 .448 1 1l-.042.287-2.672 9.613c-.33.653-1.005 1.1-1.786 1.1h-13zM12 4.743L9.02 9h5.96L12 4.743zM12 13c-1.105 0-2 .895-2 2s.895 2 2 2 2-.895 2-2-.895-2-2-2z"/></svg>
